svg/color/cmcsaon.svg

<svg width="40" height="40" viewBox="0 0 40 40" fill="none" xmlns="http://www.w3.org/2000/svg">
<g clip-path="url(#clip0_819_3581)">
<path d="M20 0C31.0457 0 40 8.9543 40 20C40 31.0457 31.0457 40 20 40C8.95431 40 7.90517e-06 31.0457 0 20C6.58765e-07 8.95431 8.95431 1.97595e-06 20 0Z" fill="#E0DFEE"/>
<path d="M26 6C30.4183 6 34 9.58172 34 14V26C34 30.4183 30.4183 34 26 34H14C9.58172 34 6 30.4183 6 26V14C6 9.58172 9.58172 6 14 6H26Z" fill="#645FAA"/>
<path d="M11.2636 21.8202C11.8557 21.5368 12.6812 21.6001 13.2244 21.9501L18.7849 25.8188L12.1474 25.8144C11.4557 25.833 10.8687 25.5412 10.4285 25.0072C9.98401 24.4499 9.86261 23.5525 10.172 22.8972C10.3745 22.4485 10.8055 21.9998 11.2636 21.8202ZM26.7751 21.9501C27.3184 21.6001 28.1441 21.5368 28.737 21.8202C29.1949 21.9998 29.6259 22.4485 29.8275 22.8972C30.1378 23.5525 30.0156 24.4499 29.5719 25.0072C29.1318 25.5412 28.543 25.833 27.8523 25.8144L21.2147 25.8188L26.7751 21.9501ZM24.4863 18.0047C24.9308 17.2152 25.7793 16.8155 26.6766 16.936C27.2914 17.0483 27.9063 17.448 28.2031 18.0401C28.5666 18.6599 28.4849 19.5978 28.0807 20.173C27.8304 20.577 27.417 20.7786 27.067 21.0434L21.4695 24.8859H21.4567L21.5192 24.7021L24.4863 18.0047ZM12.8837 17.0575C13.8628 16.6991 14.9659 17.0803 15.4872 18.0047L18.5749 24.8851H18.5253L12.3001 20.5947C11.6666 20.0609 11.407 19.2613 11.6221 18.4534C11.7832 17.8478 12.2858 17.282 12.8837 17.0575ZM21.3716 14.3335C22.0853 13.9212 23.0905 14.0332 23.7095 14.5621C23.9609 14.7863 24.1726 15.0469 24.2931 15.3387C24.6204 15.9991 24.4281 16.8644 24.0865 17.4573L21.4433 23.4042L21.4205 23.4321L20.465 17.3992C20.3883 16.8199 21.0073 16.5727 21.3716 16.2943C21.3531 16.2093 21.2594 16.2134 21.2005 16.1738L20.3074 16.1645L20.2803 16.1375C20.2853 15.3886 20.6885 14.697 21.3716 14.3335ZM16.1644 14.6833C16.7345 14.1048 17.6724 13.9479 18.418 14.2617C18.8127 14.4321 19.1898 14.7459 19.4233 15.1321C19.6393 15.5318 19.7641 15.9857 19.6882 16.4882L18.6103 23.3957C18.6162 23.4041 18.6061 23.4134 18.5976 23.4175L18.3185 22.8618L15.617 16.829C15.3657 16.0522 15.5985 15.2401 16.1644 14.6833Z" fill="white"/>
</g>
<defs>
<clipPath id="clip0_819_3581">
<rect width="40" height="40" fill="white"/>
</clipPath>
</defs>
</svg>

<svg xmlns="http://www.w3.org/2000/svg" width="40" height="40" fill="none" viewBox="0 0 40 40"><g clip-path="url(#cmcsaon_svg-a)"><path fill="#E0DFEE" d="M20 0c11.046 0 20 8.954 20 20s-8.954 20-20 20S0 31.046 0 20 8.954 0 20 0"/><path fill="#645FAA" d="M26 6a8 8 0 0 1 8 8v12a8 8 0 0 1-8 8H14a8 8 0 0 1-8-8V14a8 8 0 0 1 8-8z"/><path fill="#fff" d="M11.264 21.82c.592-.283 1.417-.22 1.96.13l5.56 3.869-6.637-.005c-.691.019-1.278-.273-1.719-.807-.444-.557-.565-1.455-.256-2.11.202-.448.633-.897 1.092-1.077m15.511.13c.543-.35 1.37-.413 1.962-.13.458.18.889.628 1.09 1.077.31.656.189 1.553-.255 2.11-.44.534-1.029.826-1.72.807l-6.637.005zm-2.289-3.945c.445-.79 1.293-1.19 2.19-1.069.615.112 1.23.512 1.527 1.104.364.62.282 1.558-.122 2.133-.25.404-.664.606-1.014.87l-5.597 3.843h-.013l.062-.184zm-11.602-.947a2.134 2.134 0 0 1 2.603.947l3.088 6.88h-.05l-6.225-4.29a2.05 2.05 0 0 1-.678-2.142 2.15 2.15 0 0 1 1.262-1.395m8.488-2.724c.713-.413 1.718-.3 2.337.228.252.224.464.485.584.777.327.66.135 1.525-.206 2.118l-2.644 5.947-.023.028-.955-6.033c-.077-.58.542-.826.907-1.105-.019-.085-.113-.08-.171-.12l-.894-.01-.027-.027a2.05 2.05 0 0 1 1.092-1.803m-5.208.35c.57-.58 1.508-.736 2.254-.422.395.17.772.484 1.005.87.216.4.341.854.265 1.356l-1.078 6.908c.006.008-.004.017-.012.021l-.28-.555-2.701-6.033c-.251-.777-.019-1.589.547-2.146"/></g><defs><clipPath id="cmcsaon_svg-a"><path fill="#fff" d="M0 0h40v40H0z"/></clipPath></defs></svg>
